;FLAVOR:Marlin
;TIME:93
;Filament used: 0.070177m
;Layer height: 0.2
;Generated with Cura_SteamEngine 3.2.0-BETA
M190 S70
M104 S200
M109 S200
M82 ;absolute extrusion mode
G28 ;Home
G1 Z15.0 F6000 ;Move the platform down 15mm
;Prime the extruder
G92 E0
G1 F200 E3
G92 E0
;LAYER_COUNT:2
;LAYER:0
M107
G0 F3600 X45.289 Y40.61 Z0.3
;TYPE:WALL-INNER
G1 F1500 X45.55 Y40.634 E0.01308
G1 X45.817 Y40.677 E0.02657
G1 X46.09 Y40.737 E0.04051
G1 X46.363 Y40.817 E0.05471
G1 X46.625 Y40.911 E0.06859
G1 X46.874 Y41.019 E0.08213
G1 X47.118 Y41.143 E0.09579
G1 X47.352 Y41.282 E0.10937
G1 X47.596 Y41.448 E0.12409
G1 X47.803 Y41.608 E0.13714
G1 X48.008 Y41.788 E0.15075
G1 X48.212 Y41.992 E0.16515
G1 X48.392 Y42.197 E0.17876
G1 X48.555 Y42.408 E0.19206
G1 X48.712 Y42.637 E0.20591
G1 X48.857 Y42.881 E0.22007
G1 X48.984 Y43.132 E0.23411
G1 X49.093 Y43.384 E0.24781
G1 X49.183 Y43.636 E0.26116
G1 X49.267 Y43.925 E0.27617
G1 X49.319 Y44.159 E0.28813
G1 X49.367 Y44.455 E0.30309
G1 X49.39 Y44.705 E0.31561
G1 X49.4 Y44.993 E0.32999
G1 X49.39 Y45.289 E0.34477
G1 X49.366 Y45.551 E0.35789
G1 X49.325 Y45.807 E0.37083
G1 X49.261 Y46.096 E0.3856
G1 X49.183 Y46.364 E0.39952
G1 X49.095 Y46.61 E0.41256
G1 X48.979 Y46.877 E0.42708
G1 X48.853 Y47.126 E0.441
G1 X48.726 Y47.341 E0.45346
G1 X48.552 Y47.596 E0.46886
G1 X48.392 Y47.803 E0.48191
G1 X48.212 Y48.008 E0.49552
G1 X48.01 Y48.21 E0.50978
G1 X47.805 Y48.39 E0.52339
G1 X47.596 Y48.553 E0.53661
G1 X47.352 Y48.718 E0.55131
G1 X47.118 Y48.857 E0.56488
G1 X46.874 Y48.981 E0.57854
G1 X46.625 Y49.089 E0.59208
G1 X46.363 Y49.183 E0.60597
G1 X46.09 Y49.263 E0.62016
G1 X45.817 Y49.323 E0.63411
G1 X45.55 Y49.366 E0.6476
G1 X45.289 Y49.39 E0.66067
G1 X45 Y49.4 E0.6751
G1 X44.711 Y49.39 E0.68953
G1 X44.45 Y49.366 E0.7026
G1 X44.183 Y49.323 E0.7161
G1 X43.91 Y49.263 E0.73004
G1 X43.637 Y49.183 E0.74423
G1 X43.375 Y49.089 E0.75812
G1 X43.126 Y48.981 E0.77166
G1 X42.882 Y48.857 E0.78532
G1 X42.648 Y48.718 E0.7989
G1 X42.404 Y48.553 E0.81359
G1 X42.195 Y48.39 E0.82681
G1 X41.99 Y48.21 E0.84042
G1 X41.788 Y48.008 E0.85468
G1 X41.608 Y47.803 E0.86829
G1 X41.448 Y47.596 E0.88134
G1 X41.274 Y47.341 E0.89674
G1 X41.147 Y47.126 E0.9092
G1 X41.021 Y46.877 E0.92312
G1 X40.905 Y46.61 E0.93765
G1 X40.817 Y46.364 E0.95068
G1 X40.739 Y46.096 E0.96461
G1 X40.675 Y45.807 E0.97937
G1 X40.634 Y45.551 E0.99231
G1 X40.61 Y45.289 E1.00543
G1 X40.6 Y45.006 E1.01956
G1 X40.61 Y44.705 E1.03459
G1 X40.633 Y44.455 E1.04711
G1 X40.675 Y44.193 E1.06035
G1 X40.74 Y43.9 E1.07532
G1 X40.817 Y43.636 E1.08904
G1 X40.907 Y43.384 E1.10239
G1 X41.016 Y43.132 E1.11609
G1 X41.147 Y42.874 E1.13053
G1 X41.274 Y42.659 E1.14299
G1 X41.448 Y42.404 E1.15839
G1 X41.608 Y42.197 E1.17144
G1 X41.788 Y41.992 E1.18505
G1 X41.992 Y41.788 E1.19944
G1 X42.197 Y41.608 E1.21305
G1 X42.404 Y41.448 E1.22611
G1 X42.648 Y41.282 E1.24083
G1 X42.882 Y41.143 E1.25441
G1 X43.126 Y41.019 E1.26806
G1 X43.375 Y40.911 E1.2816
G1 X43.637 Y40.817 E1.29549
G1 X43.91 Y40.737 E1.30968
G1 X44.183 Y40.677 E1.32363
G1 X44.45 Y40.634 E1.33712
G1 X44.711 Y40.61 E1.3502
G1 X45 Y40.6 E1.36462
G1 X45.289 Y40.61 E1.37905
G0 F3600 X45.283 Y40.709
G0 X42.633 Y43.698
G0 X42.72 Y43.746
G1 F1500 X42.581 Y44.045 E1.3955
G1 X42.484 Y44.344 E1.41118
G1 X42.444 Y44.52 E1.42019
G1 X42.404 Y44.837 E1.43613
G1 X42.404 Y45.163 E1.45239
G1 X42.444 Y45.488 E1.46873
G1 X42.526 Y45.804 E1.48502
G1 X42.646 Y46.107 E1.50128
G1 X42.804 Y46.395 E1.51767
G1 X42.997 Y46.659 E1.53398
G1 X43.22 Y46.896 E1.55022
G1 X43.47 Y47.104 E1.56644
G1 X43.746 Y47.28 E1.58277
G1 X44.045 Y47.419 E1.59922
G1 X44.344 Y47.516 E1.61491
G1 X44.52 Y47.556 E1.62391
G1 X44.837 Y47.596 E1.63985
G1 X45.163 Y47.596 E1.65611
G1 X45.488 Y47.556 E1.67245
G1 X45.804 Y47.474 E1.68874
G1 X46.107 Y47.354 E1.705
G1 X46.395 Y47.196 E1.72139
G1 X46.651 Y47.009 E1.7372
G1 X46.786 Y46.89 E1.74618
G1 X47.003 Y46.659 E1.76199
G1 X47.196 Y46.395 E1.77831
G1 X47.354 Y46.107 E1.7947
G1 X47.474 Y45.804 E1.81096
G1 X47.556 Y45.488 E1.82724
G1 X47.596 Y45.163 E1.84358
G1 X47.596 Y44.837 E1.85984
G1 X47.556 Y44.512 E1.87618
G1 X47.474 Y44.196 E1.89247
G1 X47.354 Y43.893 E1.90873
G1 X47.196 Y43.605 E1.92512
G1 X47.003 Y43.341 E1.94143
G1 X46.78 Y43.104 E1.95767
G1 X46.53 Y42.896 E1.97389
G1 X46.254 Y42.72 E1.99022
G1 X45.955 Y42.581 E2.00667
G1 X45.656 Y42.484 E2.02236
G1 X45.48 Y42.444 E2.03136
G1 X45.163 Y42.404 E2.0473
G1 X44.837 Y42.404 E2.06357
G1 X44.512 Y42.444 E2.0799
G1 X44.196 Y42.526 E2.09619
G1 X43.893 Y42.646 E2.11245
G1 X43.605 Y42.804 E2.12884
G1 X43.341 Y42.997 E2.14515
G1 X43.104 Y43.22 E2.16139
G1 X42.896 Y43.47 E2.17761
G1 X42.72 Y43.746 E2.19394
G0 F3600 X43.071 Y43.939
;TYPE:WALL-OUTER
G1 F1500 X42.954 Y44.191 E2.2078
G1 X42.87 Y44.45 E2.22139
G1 X42.838 Y44.59 E2.22855
G1 X42.804 Y44.862 E2.24223
G1 X42.804 Y45.138 E2.256
G1 X42.838 Y45.413 E2.26982
G1 X42.907 Y45.68 E2.28358
G1 X43.009 Y45.937 E2.29738
G1 X43.142 Y46.18 E2.3112
G1 X43.305 Y46.403 E2.32498
G1 X43.494 Y46.604 E2.33874
G1 X43.706 Y46.78 E2.35249
G1 X43.939 Y46.929 E2.36629
G1 X44.191 Y47.046 E2.38015
G1 X44.45 Y47.13 E2.39373
G1 X44.59 Y47.162 E2.4009
G1 X44.862 Y47.196 E2.41457
G1 X45.138 Y47.196 E2.42834
G1 X45.413 Y47.162 E2.44217
G1 X45.68 Y47.093 E2.45593
G1 X45.937 Y46.991 E2.46972
G1 X46.18 Y46.858 E2.48354
G1 X46.4 Y46.697 E2.49714
G1 X46.508 Y46.602 E2.50432
G1 X46.695 Y46.403 E2.51794
G1 X46.858 Y46.18 E2.53172
G1 X46.991 Y45.937 E2.54554
G1 X47.093 Y45.68 E2.55934
G1 X47.162 Y45.413 E2.5731
G1 X47.196 Y45.138 E2.58692
G1 X47.196 Y44.862 E2.60069
G1 X47.162 Y44.587 E2.61451
G1 X47.093 Y44.32 E2.62827
G1 X46.991 Y44.063 E2.64207
G1 X46.858 Y43.82 E2.65589
G1 X46.695 Y43.597 E2.66967
G1 X46.506 Y43.396 E2.68343
G1 X46.294 Y43.22 E2.69718
G1 X46.061 Y43.071 E2.71098
G1 X45.809 Y42.954 E2.72484
G1 X45.55 Y42.87 E2.73842
G1 X45.41 Y42.838 E2.74559
G1 X45.138 Y42.804 E2.75926
G1 X44.862 Y42.804 E2.77303
G1 X44.587 Y42.838 E2.78686
G1 X44.32 Y42.907 E2.80062
G1 X44.063 Y43.009 E2.81441
G1 X43.82 Y43.142 E2.82823
G1 X43.597 Y43.305 E2.84201
G1 X43.396 Y43.494 E2.85578
G1 X43.22 Y43.706 E2.86952
G1 X43.071 Y43.939 E2.88332
G0 F3600 X42.987 Y44.12
G0 X42.535 Y43.91
G0 X42.84 Y43.504
G0 X45.283 Y40.709
G0 X45.306 Y40.21
G1 F1500 X45.605 Y40.238 E2.8983
G1 X45.898 Y40.285 E2.91311
G1 X46.189 Y40.349 E2.92797
G1 X46.489 Y40.437 E2.94357
G1 X46.766 Y40.536 E2.95825
G1 X47.049 Y40.659 E2.97364
G1 X47.307 Y40.79 E2.98808
G1 X47.571 Y40.947 E3.0034
G1 X47.826 Y41.12 E3.01877
G1 X48.055 Y41.297 E3.03321
G1 X48.291 Y41.505 E3.04891
G1 X48.495 Y41.709 E3.0633
G1 X48.703 Y41.945 E3.079
G1 X48.88 Y42.174 E3.09344
G1 X49.05 Y42.423 E3.10848
G1 X49.21 Y42.693 E3.12414
G1 X49.341 Y42.951 E3.13857
G1 X49.466 Y43.239 E3.15423
G1 X49.563 Y43.511 E3.16864
G1 X49.651 Y43.813 E3.18434
G1 X49.714 Y44.095 E3.19875
G1 X49.762 Y44.391 E3.21371
G1 X49.79 Y44.692 E3.22879
G1 X49.8 Y44.994 E3.24387
G1 X49.79 Y45.306 E3.25944
G1 X49.762 Y45.605 E3.27442
G1 X49.716 Y45.894 E3.28902
G1 X49.651 Y46.187 E3.304
G1 X49.563 Y46.489 E3.31969
G1 X49.466 Y46.761 E3.3341
G1 X49.342 Y47.046 E3.3496
G1 X49.21 Y47.307 E3.3642
G1 X49.057 Y47.566 E3.3792
G1 X48.88 Y47.826 E3.3949
G1 X48.703 Y48.055 E3.40934
G1 X48.495 Y48.291 E3.42503
G1 X48.291 Y48.495 E3.43942
G1 X48.057 Y48.701 E3.45498
G1 X47.826 Y48.88 E3.46956
G1 X47.571 Y49.053 E3.48493
G1 X47.307 Y49.21 E3.50025
G1 X47.049 Y49.341 E3.51469
G1 X46.766 Y49.464 E3.53009
G1 X46.489 Y49.563 E3.54476
G1 X46.189 Y49.651 E3.56036
G1 X45.898 Y49.715 E3.57522
G1 X45.605 Y49.762 E3.59003
G1 X45.306 Y49.79 E3.60501
G1 X45 Y49.8 E3.62029
G1 X44.694 Y49.79 E3.63556
G1 X44.395 Y49.762 E3.65054
G1 X44.102 Y49.715 E3.66535
G1 X43.811 Y49.651 E3.68021
G1 X43.511 Y49.563 E3.69581
G1 X43.234 Y49.464 E3.71049
G1 X42.951 Y49.341 E3.72588
G1 X42.693 Y49.21 E3.74032
G1 X42.429 Y49.053 E3.75564
G1 X42.174 Y48.88 E3.77101
G1 X41.943 Y48.701 E3.78559
G1 X41.709 Y48.495 E3.80115
G1 X41.505 Y48.291 E3.81554
G1 X41.297 Y48.055 E3.83123
G1 X41.12 Y47.826 E3.84567
G1 X40.943 Y47.566 E3.86137
G1 X40.79 Y47.307 E3.87637
G1 X40.658 Y47.046 E3.89097
G1 X40.534 Y46.761 E3.90647
G1 X40.437 Y46.489 E3.92088
G1 X40.349 Y46.187 E3.93657
G1 X40.284 Y45.894 E3.95155
G1 X40.238 Y45.605 E3.96615
G1 X40.21 Y45.306 E3.98113
G1 X40.2 Y45.006 E3.9961
G1 X40.21 Y44.692 E4.01178
G1 X40.238 Y44.391 E4.02686
G1 X40.284 Y44.106 E4.04126
G1 X40.349 Y43.813 E4.05624
G1 X40.437 Y43.511 E4.07193
G1 X40.534 Y43.239 E4.08634
G1 X40.659 Y42.951 E4.102
G1 X40.79 Y42.693 E4.11644
G1 X40.943 Y42.434 E4.13144
G1 X41.12 Y42.174 E4.14713
G1 X41.297 Y41.945 E4.16157
G1 X41.505 Y41.709 E4.17727
G1 X41.709 Y41.505 E4.19166
G1 X41.945 Y41.297 E4.20736
G1 X42.174 Y41.12 E4.2218
G1 X42.429 Y40.947 E4.23717
G1 X42.693 Y40.79 E4.25249
G1 X42.951 Y40.659 E4.26693
G1 X43.234 Y40.536 E4.28232
G1 X43.511 Y40.437 E4.297
G1 X43.811 Y40.349 E4.3126
G1 X44.102 Y40.285 E4.32746
G1 X44.395 Y40.238 E4.34227
G1 X44.694 Y40.21 E4.35725
G1 X45 Y40.2 E4.37252
G1 X45.306 Y40.21 E4.3878
G0 F3600 X45.505 Y40.228
G0 X45.498 Y41.021
;TYPE:SKIN
G1 F1500 X45.741 Y41.06 E4.40008
G1 X45.995 Y41.116 E4.41305
G1 X46.238 Y41.187 E4.42568
G1 X46.49 Y41.277 E4.43903
G1 X46.7 Y41.369 E4.45047
G1 X46.935 Y41.488 E4.46361
G1 X47.143 Y41.611 E4.47567
G1 X47.367 Y41.763 E4.48918
G1 X47.546 Y41.901 E4.50045
G1 X47.751 Y42.081 E4.51406
G1 X47.919 Y42.249 E4.52592
G1 X48.099 Y42.454 E4.53953
G1 X48.233 Y42.628 E4.55048
G1 X48.39 Y42.857 E4.56433
G1 X48.515 Y43.069 E4.57661
G1 X48.63 Y43.297 E4.58935
G1 X48.73 Y43.527 E4.60187
G1 X48.812 Y43.756 E4.614
G1 X48.89 Y44.022 E4.62783
G1 X48.935 Y44.222 E4.63806
G1 X48.98 Y44.504 E4.65231
G1 X49 Y44.719 E4.66308
G1 X49.01 Y44.98 E4.67611
G1 X49 Y45.275 E4.69083
G1 X48.98 Y45.495 E4.70186
G1 X48.944 Y45.723 E4.71337
G1 X48.883 Y45.999 E4.72747
G1 X48.812 Y46.244 E4.7402
G1 X48.734 Y46.463 E4.7518
G1 X48.626 Y46.71 E4.76525
G1 X48.511 Y46.938 E4.77799
G1 X48.4 Y47.126 E4.78888
G1 X48.23 Y47.376 E4.80396
G1 X48.099 Y47.546 E4.81467
G1 X47.919 Y47.751 E4.82828
G1 X47.753 Y47.917 E4.83999
G1 X47.565 Y48.082 E4.85247
G1 X47.363 Y48.239 E4.86524
G1 X47.144 Y48.388 E4.87845
G1 X46.929 Y48.515 E4.89091
G1 X46.7 Y48.631 E4.90372
G1 X46.49 Y48.723 E4.91515
G1 X46.238 Y48.813 E4.9285
G1 X45.995 Y48.884 E4.94113
G1 X45.741 Y48.94 E4.95411
G1 X45.498 Y48.979 E4.96639
G1 X45.275 Y49 E4.97756
G1 X45 Y49.01 E4.99129
G1 X44.725 Y49 E5.00502
G1 X44.502 Y48.979 E5.0162
G1 X44.259 Y48.94 E5.02847
G1 X44.005 Y48.884 E5.04145
G1 X43.762 Y48.813 E5.05408
G1 X43.51 Y48.723 E5.06743
G1 X43.3 Y48.631 E5.07887
G1 X43.071 Y48.515 E5.09168
G1 X42.856 Y48.388 E5.10413
G1 X42.637 Y48.239 E5.11735
G1 X42.435 Y48.082 E5.13011
G1 X42.247 Y47.917 E5.14259
G1 X42.081 Y47.751 E5.15431
G1 X41.901 Y47.546 E5.16792
G1 X41.77 Y47.376 E5.17862
G1 X41.6 Y47.126 E5.19371
G1 X41.489 Y46.938 E5.2046
G1 X41.374 Y46.71 E5.21734
G1 X41.266 Y46.463 E5.23079
G1 X41.188 Y46.244 E5.24239
G1 X41.117 Y45.999 E5.25511
G1 X41.056 Y45.723 E5.26921
G1 X41.02 Y45.495 E5.28073
G1 X41 Y45.275 E5.29175
G1 X40.99 Y45.019 E5.30453
G1 X41 Y44.718 E5.31956
G1 X41.02 Y44.503 E5.33033
G1 X41.056 Y44.277 E5.34175
G1 X41.118 Y43.997 E5.35606
G1 X41.188 Y43.756 E5.36858
G1 X41.27 Y43.527 E5.38071
G1 X41.369 Y43.297 E5.3932
G1 X41.489 Y43.062 E5.40637
G1 X41.6 Y42.874 E5.41726
G1 X41.77 Y42.624 E5.43234
G1 X41.901 Y42.454 E5.44305
G1 X42.081 Y42.249 E5.45666
G1 X42.249 Y42.081 E5.46851
G1 X42.454 Y41.901 E5.48213
G1 X42.633 Y41.763 E5.4934
G1 X42.857 Y41.611 E5.50691
G1 X43.065 Y41.488 E5.51896
G1 X43.3 Y41.369 E5.5321
G1 X43.51 Y41.277 E5.54354
G1 X43.762 Y41.187 E5.55689
G1 X44.005 Y41.116 E5.56952
G1 X44.259 Y41.06 E5.5825
G1 X44.502 Y41.021 E5.59478
G1 X44.725 Y41 E5.60595
G1 X45 Y40.99 E5.61968
G1 X45.275 Y41 E5.63341
G1 X45.498 Y41.021 E5.64458
G0 F3600 X45.188 Y42.014
G1 F1500 X44.813 Y42.014 E5.66329
G1 X44.439 Y42.06 E5.68209
G1 X44.075 Y42.155 E5.70086
G1 X43.727 Y42.293 E5.71954
G1 X43.395 Y42.474 E5.7384
G1 X43.091 Y42.697 E5.75721
G1 X42.819 Y42.953 E5.77585
G1 X42.58 Y43.24 E5.79448
G1 X42.377 Y43.559 E5.81335
G1 X42.218 Y43.902 E5.83221
G1 X42.108 Y44.24 E5.84994
G1 X42.06 Y44.452 E5.86079
G1 X42.014 Y44.812 E5.87889
G1 X42.014 Y45.187 E5.8976
G1 X42.06 Y45.561 E5.9164
G1 X42.155 Y45.925 E5.93517
G1 X42.293 Y46.273 E5.95385
G1 X42.474 Y46.605 E5.97271
G1 X42.697 Y46.909 E5.99152
G1 X42.953 Y47.181 E6.01016
G1 X43.24 Y47.42 E6.02879
G1 X43.559 Y47.623 E6.04765
G1 X43.902 Y47.782 E6.06651
G1 X44.24 Y47.892 E6.08425
G1 X44.452 Y47.94 E6.09509
G1 X44.812 Y47.986 E6.1132
G1 X45.187 Y47.986 E6.13191
G1 X45.561 Y47.94 E6.15071
G1 X45.925 Y47.845 E6.16948
G1 X46.273 Y47.707 E6.18815
G1 X46.605 Y47.526 E6.20702
G1 X46.895 Y47.313 E6.22497
G1 X47.057 Y47.171 E6.23572
G1 X47.303 Y46.909 E6.25365
G1 X47.526 Y46.605 E6.27246
G1 X47.707 Y46.273 E6.29132
G1 X47.845 Y45.925 E6.31
G1 X47.94 Y45.561 E6.32877
G1 X47.986 Y45.187 E6.34757
G1 X47.986 Y44.813 E6.36623
G1 X47.94 Y44.439 E6.38502
G1 X47.845 Y44.075 E6.40379
G1 X47.707 Y43.727 E6.42247
G1 X47.526 Y43.395 E6.44134
G1 X47.303 Y43.091 E6.46015
G1 X47.047 Y42.819 E6.47878
G1 X46.76 Y42.58 E6.49741
G1 X46.441 Y42.377 E6.51628
G1 X46.098 Y42.218 E6.53514
G1 X45.76 Y42.108 E6.55287
G1 X45.548 Y42.06 E6.56372
G1 X45.188 Y42.014 E6.58182
G0 F3600 X46.623 Y41.531
G1 F1500 X48.466 Y43.375 E6.71189
G1 X48.536 Y43.445
G0 F3600 X48.027 Y44.067
G1 F1500 X48.825 Y44.865 E6.7682
G1 X48.895 Y44.935
G0 F3600 X48.806 Y45.412
G1 F1500 X48.161 Y44.766 E6.81374
G1 X48.091 Y44.696
G0 F3600 X48.149 Y45.321
G1 F1500 X48.721 Y45.893 E6.8541
G1 X48.791 Y45.963
G0 F3600 X48.59 Y46.328
G1 F1500 X48.062 Y45.799 E6.89139
G0 F3600 X47.919 Y46.222
G1 F1500 X48.418 Y46.721 E6.92659
G0 F3600 X48.213 Y47.081
G1 F1500 X47.731 Y46.6 E6.96056
G0 F3600 X47.503 Y46.937
G1 F1500 X47.976 Y47.41 E6.99394
G0 F3600 X47.708 Y47.708
G1 F1500 X47.238 Y47.238 E7.0271
G0 F3600 X46.938 Y47.504
G1 F1500 X47.407 Y47.973 E7.06019
G0 F3600 X47.08 Y48.211
G1 F1500 X46.601 Y47.732 E7.09399
G0 F3600 X46.222 Y47.919
G1 F1500 X46.721 Y48.418 E7.12919
G0 F3600 X46.326 Y48.589
G1 F1500 X45.8 Y48.062 E7.16634
G0 F3600 X45.322 Y48.15
G1 F1500 X45.892 Y48.721 E7.20659
G1 X45.962 Y48.791
G0 F3600 X45.411 Y48.805
G1 F1500 X44.766 Y48.161 E7.25206
G1 X44.696 Y48.091
G0 F3600 X44.863 Y48.823
G1 F1500 X44.063 Y48.023 E7.30851
G1 X43.993 Y47.953
G0 F3600 X44.221 Y48.746
G1 F1500 X41.251 Y45.777 E7.51802
G1 X41.181 Y45.707
G0 F3600 X41.174 Y45.134
G1 F1500 X41.971 Y45.931 E7.57426
G1 X42.041 Y46.001
G0 F3600 X41.838 Y45.232
G1 F1500 X41.192 Y44.586 E7.61983
G1 X41.122 Y44.516
G0 F3600 X41.277 Y44.105
G1 F1500 X41.85 Y44.678 E7.66026
G1 X41.92 Y44.748
G0 F3600 X41.934 Y44.197
G1 F1500 X41.408 Y43.671 E7.69738
G0 F3600 X41.58 Y43.277
G1 F1500 X42.078 Y43.775 E7.73251
G0 F3600 X42.266 Y43.397
G1 F1500 X41.786 Y42.917 E7.76638
G0 F3600 X42.022 Y42.588
G1 F1500 X42.494 Y43.06 E7.79968
G0 F3600 X42.76 Y42.76
G1 F1500 X42.291 Y42.291 E7.83277
G0 F3600 X42.589 Y42.023
G1 F1500 X43.061 Y42.495 E7.86607
G0 F3600 X43.398 Y42.267
G1 F1500 X42.917 Y41.786 E7.90001
G0 F3600 X43.277 Y41.58
G1 F1500 X43.776 Y42.079 E7.93522
G0 F3600 X44.199 Y41.936
G1 F1500 X43.672 Y41.409 E7.9724
G0 F3600 X44.106 Y41.278
G1 F1500 X44.677 Y41.848 E8.01265
G1 X44.747 Y41.918
G0 F3600 X45.232 Y41.838
G1 F1500 X44.588 Y41.193 E8.05812
G1 X44.518 Y41.123
G0 F3600 X45.135 Y41.175
G1 F1500 X45.935 Y41.975 E8.11457
G1 X46.005 Y42.045
G0 F3600 X45.778 Y41.253
G1 F1500 X48.75 Y44.224 E8.32422
G1 X48.82 Y44.294
G0 F3600 X46.813 Y46.918
G0 X46.255 Y47.299
G0 X43.376 Y48.467
G1 F1500 X41.531 Y46.623 E8.45436
G1 X41.461 Y46.553
G1 F1500 E1.95436
G0 F3600 X44.514 Y47.595
G0 X45.165 Y47.635
G0 X45.816 Y47.512
G0 X45.986 Y47.433
G0 X49.347 Y45.549
G0 X50.624 Y45.668
G0 X159.427 Y43.993
G0 X160.694 Y44.196
G0 X162.633 Y43.698
G0 X162.72 Y43.746
;TYPE:WALL-INNER
G1 F1500 E8.45436
G1 X162.581 Y44.045 E8.47081
G1 X162.484 Y44.344 E8.4865
G1 X162.444 Y44.52 E8.4955
G1 X162.404 Y44.837 E8.51144
G1 X162.404 Y45.163 E8.52771
G1 X162.444 Y45.488 E8.54404
G1 X162.526 Y45.804 E8.56033
G1 X162.646 Y46.107 E8.57659
G1 X162.804 Y46.395 E8.59298
